fs/picture_in_picture_16_regular.svg

<svg viewBox="0 0 16 16" fill="none" xmlns="http://www.w3.org/2000/svg" height="1em" width="1em">
  <path d="M1 4.5C1 3.11929 2.11929 2 3.5 2H11.5C12.8807 2 14 3.11929 14 4.5V8H13V4.5C13 3.67157 12.3284 3 11.5 3H3.5C2.67157 3 2 3.67157 2 4.5V9.5C2 10.3284 2.67157 11 3.5 11H7V12H3.5C2.11929 12 1 10.8807 1 9.5V4.5ZM9 9C8.44772 9 8 9.44772 8 10V13C8 13.5523 8.44772 14 9 14H14C14.5523 14 15 13.5523 15 13V10C15 9.44772 14.5523 9 14 9H9Z" fill="#212121"/>
</svg>

<svg viewBox="0 0 16 16" fill="none" xmlns="http://www.w3.org/2000/svg" height="1em" width="1em">
  <path d="M1 4.5A2.5 2.5 0 0 1 3.5 2h8A2.5 2.5 0 0 1 14 4.5V8h-1V4.5A1.5 1.5 0 0 0 11.5 3h-8A1.5 1.5 0 0 0 2 4.5v5A1.5 1.5 0 0 0 3.5 11H7v1H3.5A2.5 2.5 0 0 1 1 9.5v-5ZM9 9a1 1 0 0 0-1 1v3a1 1 0 0 0 1 1h5a1 1 0 0 0 1-1v-3a1 1 0 0 0-1-1H9Z" fill="#212121"/>
</svg>
